X:571
T: "Klage"
N: Z1251
O: Europa, Mitteleuropa, Deutschland, Niederrhein
R: Liebes - Lied, verlassene Liebe
M: 4/4
L: 1/8
K: E
GF | E3FGFGA | B4
c4 | cBBGBAA2 | G2z2
B4 | GBB2c3B | cBA
GA3A | B3cBAGA | B2BAG2

